img/svg/partners/partner-logo-1.svg

<svg width="129" height="129" viewBox="0 0 129 129" fill="none" xmlns="http://www.w3.org/2000/svg">
<g opacity="0.1">
<path opacity="0.1" d="M128.12 125.12V128.12H125.12" stroke="#20263C" stroke-miterlimit="10"/>
<path opacity="0.1" d="M119.35 128.12H6.88" stroke="#20263C" stroke-miterlimit="10" stroke-dasharray="5.77 5.77"/>
<path opacity="0.1" d="M3.99997 128.12H1V125.12" stroke="#20263C" stroke-miterlimit="10"/>
<path opacity="0.1" d="M1 119.35V6.87988" stroke="#20263C" stroke-miterlimit="10" stroke-dasharray="5.77 5.77"/>
<path opacity="0.1" d="M1 4V1H3.99997" stroke="#20263C" stroke-miterlimit="10"/>
<path opacity="0.1" d="M9.76001 1H122.24" stroke="#20263C" stroke-miterlimit="10" stroke-dasharray="5.77 5.77"/>
<path opacity="0.1" d="M125.12 1H128.12V4" stroke="#20263C" stroke-miterlimit="10"/>
<path opacity="0.1" d="M128.12 9.75977V122.24" stroke="#20263C" stroke-miterlimit="10" stroke-dasharray="5.77 5.77"/>
</g>
<path d="M64 81.3379C62.0535 81.3466 60.1327 80.875 58.3952 79.962C56.6578 79.0489 55.153 77.7204 54.0046 76.0854L46 80.8682C46.3046 81.2335 46.6652 81.5437 47.0673 81.7863L61.3113 90.327C62.1438 90.7694 63.0652 91 64 91C64.9348 91 65.8562 90.7694 66.6887 90.327L80.9327 81.7863C81.3348 81.5437 81.6954 81.2335 82 80.8682L74.016 76C72.8743 77.6537 71.3703 79.0005 69.6284 79.9288C67.8866 80.8571 65.9571 81.3402 64 81.3379Z" fill="#414042"/>
<path d="M51.4673 68.449C51.4746 65.4125 52.6548 62.485 54.7823 60.2261C56.9098 57.9672 59.8355 56.5353 63 56.2041V47C62.5199 47.0952 62.058 47.2604 61.6306 47.4898L46.7815 55.6531C45.9744 56.1681 45.3033 56.8543 44.8208 57.6581C44.3382 58.4618 44.0573 59.3611 44 60.2857V76.6122C44.0066 77.0833 44.0858 77.551 44.2353 78L52.58 73.4082C51.8503 71.8473 51.4713 70.158 51.4673 68.449Z" fill="#414042"/>
<path d="M81.3649 55.6474L67.2973 47.4895C66.8925 47.2602 66.4549 47.0951 66 47V56.1776C67.9111 56.3955 69.7447 57.0617 71.3531 58.1229C72.9615 59.184 74.2998 60.6103 75.2602 62.2869C76.2206 63.9635 76.7762 65.8436 76.8824 67.7758C76.9886 69.708 76.6424 71.6382 75.8716 73.4112L83.7771 78C83.9187 77.5512 83.9938 77.0839 84 76.6132V60.2974C83.9488 59.3699 83.6841 58.4671 83.2268 57.6601C82.7694 56.8531 82.1321 56.1641 81.3649 55.6474Z" fill="#414042"/>
<path d="M91.6116 47.4711L68.3885 34.0403C67.0266 33.3562 65.5238 33 64 33C62.4762 33 60.9736 33.3562 59.6116 34.0403L36.3884 47.4711C35.1137 48.3027 34.0524 49.4228 33.29 50.7409C32.5277 52.059 32.0858 53.5381 32 55.0587V81.9202C32.0842 83.4441 32.5253 84.9268 33.2876 86.2485C34.0499 87.5703 35.1121 88.694 36.3884 89.5289L59.6116 102.96C60.9736 103.644 62.4762 104 64 104C65.5238 104 67.0266 103.644 68.3885 102.96L91.6116 89.5289C92.8879 88.694 93.9501 87.5703 94.7124 86.2485C95.4747 84.9268 95.9158 83.4441 96 81.9202V55.0587C95.9142 53.5381 95.4723 52.059 94.71 50.7409C93.9476 49.4228 92.8863 48.3027 91.6116 47.4711ZM88.6299 78.8305C88.5617 80.0012 88.2204 81.1395 87.6333 82.1542C87.0463 83.169 86.2298 84.0318 85.2493 84.6737L67.3595 95.0147C66.3145 95.543 65.1602 95.8183 63.9895 95.8183C62.8188 95.8183 61.6644 95.543 60.6195 95.0147L42.7507 84.6737C41.7702 84.0318 40.9537 83.169 40.3667 82.1542C39.7796 81.1395 39.4383 80.0012 39.3701 78.8305V58.1695C39.4383 56.9988 39.7796 55.8605 40.3667 54.8458C40.9537 53.831 41.7702 52.9681 42.7507 52.3263L60.5984 41.9853C61.6434 41.457 62.7977 41.1817 63.9685 41.1817C65.1392 41.1817 66.2936 41.457 67.3386 41.9853L85.2283 52.3263C86.2126 52.9658 87.0333 53.8277 87.6241 54.8426C88.2149 55.8574 88.5594 56.997 88.6299 58.1695V78.8305Z" fill="#414042"/>
<path d="M55 68.5C55 70.1811 55.5278 71.8245 56.5167 73.2223C57.5056 74.6202 58.9113 75.7096 60.5559 76.353C62.2004 76.9963 64.01 77.1646 65.7559 76.8367C67.5017 76.5087 69.1053 75.6992 70.3639 74.5104C71.6226 73.3217 72.4798 71.8071 72.8271 70.1583C73.1743 68.5094 72.9961 66.8004 72.3149 65.2472C71.6337 63.694 70.4803 62.3665 69.0002 61.4325C67.5202 60.4985 65.78 60 64 60C61.6131 60 59.3239 60.8955 57.6361 62.4896C55.9482 64.0837 55 66.2457 55 68.5Z" fill="#414042"/>
</svg>

<svg xmlns="http://www.w3.org/2000/svg" fill="none" viewBox="0 0 129 129"><g stroke="#20263C" stroke-miterlimit="10" opacity=".1"><path d="M128.12 125.12v3h-3" opacity=".1"/><path stroke-dasharray="5.77 5.77" d="M119.35 128.12H6.88" opacity=".1"/><path d="M4 128.12H1v-3" opacity=".1"/><path stroke-dasharray="5.77 5.77" d="M1 119.35V6.88" opacity=".1"/><path d="M1 4V1h3" opacity=".1"/><path stroke-dasharray="5.77 5.77" d="M9.76 1h112.48" opacity=".1"/><path d="M125.12 1h3v3" opacity=".1"/><path stroke-dasharray="5.77 5.77" d="M128.12 9.76v112.48" opacity=".1"/></g><path fill="#414042" d="M64 81.338a11.926 11.926 0 0 1-5.605-1.376 12.457 12.457 0 0 1-4.39-3.877L46 80.868c.305.366.665.676 1.067.918l14.244 8.541A5.725 5.725 0 0 0 64 91c.935 0 1.856-.23 2.689-.673l14.244-8.54A4.248 4.248 0 0 0 82 80.867L74.016 76a12.466 12.466 0 0 1-4.388 3.929A11.929 11.929 0 0 1 64 81.338zM51.467 68.449c.008-3.037 1.188-5.964 3.315-8.223 2.128-2.259 5.054-3.69 8.218-4.022V47a4.92 4.92 0 0 0-1.37.49l-14.849 8.163a6.121 6.121 0 0 0-1.96 2.005A5.798 5.798 0 0 0 44 60.286v16.326c.007.471.086.939.235 1.388l8.345-4.592a11.767 11.767 0 0 1-1.113-4.959zM81.365 55.647L67.297 47.49A4.5 4.5 0 0 0 66 47v9.178c1.911.218 3.745.884 5.353 1.945a12.328 12.328 0 0 1 3.907 4.164 12.426 12.426 0 0 1 .611 11.124L83.778 78A4.82 4.82 0 0 0 84 76.613V60.297a6.023 6.023 0 0 0-.773-2.637 5.982 5.982 0 0 0-1.862-2.013z"/><path fill="#414042" d="M91.612 47.471l-23.224-13.43a9.777 9.777 0 0 0-8.776 0L36.388 47.47A9.706 9.706 0 0 0 32 55.06V81.92a9.739 9.739 0 0 0 4.388 7.609l23.224 13.431a9.778 9.778 0 0 0 8.776 0l23.224-13.431A9.726 9.726 0 0 0 96 81.92V55.06a9.718 9.718 0 0 0-4.388-7.588zm-2.982 31.36a7.509 7.509 0 0 1-3.38 5.843l-17.89 10.34a7.47 7.47 0 0 1-6.74 0l-17.87-10.34a7.5 7.5 0 0 1-3.38-5.844V58.17a7.509 7.509 0 0 1 3.38-5.844l17.848-10.34a7.47 7.47 0 0 1 6.74 0l17.89 10.34a7.5 7.5 0 0 1 3.402 5.843v20.662z"/><path fill="#414042" d="M55 68.5c0 1.681.528 3.325 1.517 4.722a8.91 8.91 0 0 0 4.039 3.131 9.494 9.494 0 0 0 5.2.484 9.175 9.175 0 0 0 4.608-2.327 8.365 8.365 0 0 0 2.463-4.352 8.063 8.063 0 0 0-.512-4.91A8.624 8.624 0 0 0 69 61.431 9.381 9.381 0 0 0 64 60c-2.387 0-4.676.895-6.364 2.49C55.948 64.084 55 66.246 55 68.5z"/></svg>
